img/initial_consultation_service.svg

<?xml version="1.0" encoding="utf-8"?>
<!-- Generator: Adobe Illustrator 25.3.1, SVG Export Plug-In . SVG Version: 6.00 Build 0)  -->
<svg version="1.1" id="Layer_1" xmlns="http://www.w3.org/2000/svg" xmlns:xlink="http://www.w3.org/1999/xlink" x="0px" y="0px"
	 viewBox="0 0 1024 768" style="enable-background:new 0 0 1024 768;" xml:space="preserve">
<style type="text/css">
	.st0{fill:#075985;}
	.st1{fill-rule:evenodd;clip-rule:evenodd;fill:#FFDE16;}
	.st2{fill:#FFDE16;stroke:#000000;stroke-miterlimit:10;}
	.st3{fill:none;stroke:#FACC15;stroke-width:5;stroke-miterlimit:10;}
	.st4{fill:none;stroke:#1E2235;stroke-width:10;stroke-miterlimit:10;}
	.st5{fill:#FFFFFF;}
	.st6{opacity:0.12;}
	.st7{fill:none;}
</style>
<path class="st0" d="M1024,0v647.1c-38.3-1.6-79.4,48.6-114.3,40c-72-17.7-45.9-96.4-92-111.8C736.3,547.9,758,676.7,633.2,714
	c-136.8,27.8-243.5-91.1-270.7-14c-20.5,58.2-60.7,84.7-140.8,52.7C134,717.7,128,652.3,0,721.1V0H1024z"/>
<path class="st1" d="M750.8,1291.5"/>
<path class="st2" d="M717.1-512.5"/>
<path class="st2" d="M952.9-512.1"/>
<path class="st3" d="M0,305.4c44.2,19.6,66,14.8,76-4.3c10.6-20.4,7.1-57,3.2-96.8C75,161,70.4,113.9,83.4,80.4
	c17-44.1,64.9-64.5,185.7-21c32.8,11.9,67,22,101.5,29.6c82.2,18.1,166.1,21.8,237.4,0.3C659.3,73.9,704,45.4,737.1,0"/>
<path class="st2" d="M419.2-298.8"/>
<path class="st2" d="M422.1-394"/>
<path class="st2" d="M426.4-519.1"/>
<path class="st2" d="M616-541.9"/>
<path class="st4" d="M-139.9,1082.5"/>
<g>
	<path class="st5" d="M450.7,524.8l-1.4-0.8l-5.8-20.8c0-0.2-0.1-0.4-0.2-0.6c-5.8-12.6-16-22.6-28.8-28.1L404,470l3.2-4.2
		c6.3-8.3,9.7-18.1,9.7-28.4c0-25.8-21-46.8-46.8-46.8s-46.8,21-46.8,46.8c0,10.5,3.5,20.5,10.1,28.9l3.3,4.2l-9.2,3.9
		c-12.8,5.5-23,15.5-28.8,28.1c-0.1,0.2-0.2,0.4-0.2,0.7l-5.4,19.3l-1.5,0.8c-20.7,11-33.6,32.4-33.6,55.9V643
		c0,2.4,1.9,4.2,4.2,4.2c2.4,0,4.2-1.9,4.2-4.2v-63.7c0-30.3,24.6-54.8,54.8-54.8h96.9c30.3,0,54.8,24.6,54.8,54.8V643
		c0,2.4,1.9,4.2,4.2,4.2s4.2-1.9,4.2-4.2v-63.7C481.7,557.1,469.8,536.2,450.7,524.8z M331.9,437.4c0-21.1,17.1-38.3,38.2-38.3
		s38.3,17.1,38.3,38.3c0,21.1-17.1,38.3-38.3,38.3C349.1,475.7,331.9,458.6,331.9,437.4z M432.3,517.4c-4.6-1-9.3-1.5-13.9-1.5
		h-96.9c-3.8,0-7.8,0.4-11.7,1.1l-6.5,1.2l3.4-12.4l0.1-0.3c5-10.4,13.5-18.7,24.2-23.2l13.5-5.8l1.8,1c7.2,4.3,15.5,6.6,23.9,6.6
		c8.7,0,17.1-2.4,24.5-7l1.9-1.1l14.6,6.2c10.6,4.5,19.2,12.8,24.2,23.2l0.1,0.3l3.6,13.2L432.3,517.4z"/>
	<path class="st5" d="M636.3,509.2l-139-203.4c-0.9-1.3-2.4-2.1-3.9-2.1h-7.6l-0.3-3.2c-0.4-3.6-1.5-7.1-3.5-10.2l-25.2-41.5
		c-3.6-5.9-8.7-10.7-14.8-13.9l-34.1-18.1l2.2-3.3c4.9-7.6,7.4-16.4,7.4-25.4c0-26.1-21.2-47.3-47.3-47.3c-26,0-47.3,21.2-47.3,47.3
		c0,9.4,2.8,18.5,8.1,26.3l2.3,3.3l-32.2,17.1c-6.1,3.2-11.3,8.1-14.8,13.9l-25.2,41.5c-1.9,3.1-3.1,6.6-3.5,10.2l-0.3,3.2H249
		c-1.5,0-3.1,0.8-3.9,2.1L109.2,509.2c-0.9,1.4-1,3.3-0.2,5c0.8,1.5,2.5,2.5,4.2,2.5h144.5c2.6,0,4.7-2.2,4.7-4.7s-2.2-4.7-4.7-4.7
		H121.9l129.5-193.9h8.1l1,1.9c1.8,3.2,4.1,5.9,7,8.1l53.6,39.2c3.2,2.3,6.9,3.5,10.8,3.5c4.5,0,9-1.7,12.3-4.6
		c3.9-3.5,6.2-8.6,6.1-13.9c0-5.3-2.4-10.3-6.5-13.8l-30.9-25.5h119.8L399,333.7c0,0-0.1,0.1-0.2,0.2c-4,3.4-6.4,8.5-6.4,13.7
		c0,5.3,2.2,10.4,6.1,13.9c3.4,3,7.7,4.6,12.3,4.6c3.9,0,7.7-1.2,10.8-3.5l53.6-39.2c2.9-2.2,5.3-4.9,7.1-8.1l1-1.9h7.4l132.5,193.9
		H479.8c-2.6,0-4.7,2.2-4.7,4.7c0,2.5,2.2,4.7,4.7,4.7h152.5c1.8,0,3.4-0.9,4.2-2.6C637.5,512.5,637.4,510.6,636.3,509.2z
		 M332.5,188c0-20.9,16.9-37.8,37.8-37.8S408,167.1,408,188s-16.9,37.8-37.8,37.8C349.4,225.7,332.5,208.8,332.5,188z M469.7,315.4
		l-53.6,39.2c-3.4,2.5-8.1,2.3-11.2-0.5c-2.6-2.4-3-5.3-3-6.7s0.4-4.1,2.8-6.4l0.3-0.2l44.4-33.4c1-0.7,1.7-2,1.9-3.2
		c0.1-1.2-0.2-2.6-1-3.6l-27.7-34.1c-1.7-2.1-4.6-2.4-6.7-0.7c-0.9,0.8-1.5,2-1.8,3.2c-0.1,1.2,0.2,2.5,1,3.5l23.5,29H302.2
		l23.4-27.3c1.7-2,1.4-5.1-0.5-6.7c-0.9-0.8-2.2-1.2-3.5-1.1c-1.2,0.1-2.5,0.7-3.3,1.7l-25,29.1c-0.8,0.9-1.2,2.3-1.1,3.5
		s0.7,2.5,1.7,3.3l43.9,36.9c2.7,2.3,3.1,5.2,3.1,6.7c0,2.6-1,5.1-3,6.7c-1.7,1.4-3.8,2.3-5.9,2.3c-1.9,0-3.7-0.5-5.3-1.8
		l-53.6-39.2c-6.4-4.6-8.2-13.4-4-20.2l25.2-41.5c2.7-4.4,6.5-8.1,11.2-10.5l35-18.6l1.9,1.3c8.2,6.1,17.9,9.3,28,9.3
		c10.5,0,20.5-3.4,29-10l1.9-1.4l36.4,19.3c4.5,2.4,8.5,6.1,11.2,10.5l25.2,41.5C477.9,301.9,476.2,310.6,469.7,315.4z"/>
</g>
<g>
	<g class="st6">
		<rect x="812.7" y="36.4" width="115.8" height="25.7"/>
		<path d="M960.3,267.5v25.9c-65.8,2-128.9,25.1-179.6,66.5C825.8,306.2,890.3,273.5,960.3,267.5z"/>
		<path d="M921.8,113.5v143.2c-8.7,2.5-17.2,5.4-25.6,8.9V139.2h-12.8v132.2c-8.8,4.3-17.4,9.2-25.6,14.7V139.2h-12.8v156.1
			c-9.2,7-17.7,14.6-25.6,22.8V113.5H921.8z"/>
		<path d="M986.4,113.9c0,21.5-17.4,38.9-38.8,38.9v-25.7c7.3,0,13.2-5.9,13.2-13.2s-5.9-13.2-13.2-13.2H793.6
			c-7.3,0-13.2,5.9-13.2,13.2s5.9,13.2,13.2,13.2v25.7c-21.5,0-38.8-17.4-38.8-38.9S772.1,75,793.6,75c94.3,0,59.6,0,153.9,0
			C969,74.9,986.4,92.4,986.4,113.9z"/>
	</g>
	<rect x="717.1" class="st7" width="306.9" height="396.3"/>
</g>
</svg>

<svg width="800" height="800" viewBox="0 0 800 800" fill="none" xmlns="http://www.w3.org/2000/svg">
<g clip-path="url(#clip0_1_64)">
<path d="M800 0V675.438C770.078 673.768 737.969 726.167 710.703 717.19C654.453 698.715 674.844 616.568 638.828 600.494C575.234 571.894 592.188 706.335 494.688 745.268C387.813 774.286 304.453 650.179 283.203 730.655C267.188 791.404 235.781 819.064 173.203 785.663C104.688 749.13 100 680.866 0 752.679V0H800Z" fill="#226679"/>
<path d="M0 305.4C44.2 325 66 320.2 76 301.1C86.6 280.7 83.1 244.1 79.2 204.3C75 161 70.4 113.9 83.4 80.4C100.4 36.3 148.3 15.9 269.1 59.4C301.9 71.3 336.1 81.4 370.6 89C452.8 107.1 536.7 110.8 608 89.3C659.3 73.9 704 45.4 737.1 0" stroke="#FACC15" stroke-width="5" stroke-miterlimit="10"/>
<path d="M450.7 524.8L449.3 524L443.5 503.2C443.5 503 443.4 502.8 443.3 502.6C437.5 490 427.3 480 414.5 474.5L404 470L407.2 465.8C413.5 457.5 416.9 447.7 416.9 437.4C416.9 411.6 395.9 390.6 370.1 390.6C344.3 390.6 323.3 411.6 323.3 437.4C323.3 447.9 326.8 457.9 333.4 466.3L336.7 470.5L327.5 474.4C314.7 479.9 304.5 489.9 298.7 502.5C298.6 502.7 298.5 502.9 298.5 503.2L293.1 522.5L291.6 523.3C270.9 534.3 258 555.7 258 579.2V643C258 645.4 259.9 647.2 262.2 647.2C264.6 647.2 266.4 645.3 266.4 643V579.3C266.4 549 291 524.5 321.2 524.5H418.1C448.4 524.5 472.9 549.1 472.9 579.3V643C472.9 645.4 474.8 647.2 477.1 647.2C479.4 647.2 481.3 645.3 481.3 643V579.3C481.7 557.1 469.8 536.2 450.7 524.8ZM331.9 437.4C331.9 416.3 349 399.1 370.1 399.1C391.2 399.1 408.4 416.2 408.4 437.4C408.4 458.5 391.3 475.7 370.1 475.7C349.1 475.7 331.9 458.6 331.9 437.4ZM432.3 517.4C427.7 516.4 423 515.9 418.4 515.9H321.5C317.7 515.9 313.7 516.3 309.8 517L303.3 518.2L306.7 505.8L306.8 505.5C311.8 495.1 320.3 486.8 331 482.3L344.5 476.5L346.3 477.5C353.5 481.8 361.8 484.1 370.2 484.1C378.9 484.1 387.3 481.7 394.7 477.1L396.6 476L411.2 482.2C421.8 486.7 430.4 495 435.4 505.4L435.5 505.7L439.1 518.9L432.3 517.4Z" fill="white"/>
<path d="M636.3 509.2L497.3 305.8C496.4 304.5 494.9 303.7 493.4 303.7H485.8L485.5 300.5C485.1 296.9 484 293.4 482 290.3L456.8 248.8C453.2 242.9 448.1 238.1 442 234.9L407.9 216.8L410.1 213.5C415 205.9 417.5 197.1 417.5 188.1C417.5 162 396.3 140.8 370.2 140.8C344.2 140.8 322.9 162 322.9 188.1C322.9 197.5 325.7 206.6 331 214.4L333.3 217.7L301.1 234.8C295 238 289.8 242.9 286.3 248.7L261.1 290.2C259.2 293.3 258 296.8 257.6 300.4L257.3 303.6H249C247.5 303.6 245.9 304.4 245.1 305.7L109.2 509.2C108.3 510.6 108.2 512.5 109 514.2C109.8 515.7 111.5 516.7 113.2 516.7H257.7C260.3 516.7 262.4 514.5 262.4 512C262.4 509.5 260.2 507.3 257.7 507.3H121.9L251.4 313.4H259.5L260.5 315.3C262.3 318.5 264.6 321.2 267.5 323.4L321.1 362.6C324.3 364.9 328 366.1 331.9 366.1C336.4 366.1 340.9 364.4 344.2 361.5C348.1 358 350.4 352.9 350.3 347.6C350.3 342.3 347.9 337.3 343.8 333.8L312.9 308.3H432.7L399 333.7C399 333.7 398.9 333.8 398.8 333.9C394.8 337.3 392.4 342.4 392.4 347.6C392.4 352.9 394.6 358 398.5 361.5C401.9 364.5 406.2 366.1 410.8 366.1C414.7 366.1 418.5 364.9 421.6 362.6L475.2 323.4C478.1 321.2 480.5 318.5 482.3 315.3L483.3 313.4H490.7L623.2 507.3H479.8C477.2 507.3 475.1 509.5 475.1 512C475.1 514.5 477.3 516.7 479.8 516.7H632.3C634.1 516.7 635.7 515.8 636.5 514.1C637.5 512.5 637.4 510.6 636.3 509.2ZM332.5 188C332.5 167.1 349.4 150.2 370.3 150.2C391.2 150.2 408 167.1 408 188C408 208.9 391.1 225.8 370.2 225.8C349.4 225.7 332.5 208.8 332.5 188ZM469.7 315.4L416.1 354.6C412.7 357.1 408 356.9 404.9 354.1C402.3 351.7 401.9 348.8 401.9 347.4C401.9 346 402.3 343.3 404.7 341L405 340.8L449.4 307.4C450.4 306.7 451.1 305.4 451.3 304.2C451.4 303 451.1 301.6 450.3 300.6L422.6 266.5C420.9 264.4 418 264.1 415.9 265.8C415 266.6 414.4 267.8 414.1 269C414 270.2 414.3 271.5 415.1 272.5L438.6 301.5H302.2L325.6 274.2C327.3 272.2 327 269.1 325.1 267.5C324.2 266.7 322.9 266.3 321.6 266.4C320.4 266.5 319.1 267.1 318.3 268.1L293.3 297.2C292.5 298.1 292.1 299.5 292.2 300.7C292.3 301.9 292.9 303.2 293.9 304L337.8 340.9C340.5 343.2 340.9 346.1 340.9 347.6C340.9 350.2 339.9 352.7 337.9 354.3C336.2 355.7 334.1 356.6 332 356.6C330.1 356.6 328.3 356.1 326.7 354.8L273.1 315.6C266.7 311 264.9 302.2 269.1 295.4L294.3 253.9C297 249.5 300.8 245.8 305.5 243.4L340.5 224.8L342.4 226.1C350.6 232.2 360.3 235.4 370.4 235.4C380.9 235.4 390.9 232 399.4 225.4L401.3 224L437.7 243.3C442.2 245.7 446.2 249.4 448.9 253.8L474.1 295.3C477.9 301.9 476.2 310.6 469.7 315.4Z" fill="white"/>
</g>
<defs>
<clipPath id="clip0_1_64">
<rect width="800" height="800" fill="white"/>
</clipPath>
</defs>
</svg>
